src/components/Icon/assets/map-pin.svg

<svg width="24" height="24" viewBox="0 0 24 24" fill="none" xmlns="http://www.w3.org/2000/svg">
<path fill-rule="evenodd" clip-rule="evenodd" d="M12.5002 12.732C10.7252 12.732 9.28619 11.293 9.28619 9.51798C9.28619 7.74198 10.7252 6.30298 12.5002 6.30298C14.2752 6.30298 15.7142 7.74198 15.7142 9.51798C15.7142 11.293 14.2752 12.732 12.5002 12.732M18.7562 5.33201C15.7162 0.889006 9.2842 0.889006 6.2432 5.33201C4.4822 7.90501 4.6462 11.345 6.3892 13.931L12.0562 22.339C12.2682 22.655 12.7322 22.655 12.9442 22.339L18.6102 13.931C20.3532 11.345 20.5182 7.90501 18.7562 5.33201" fill="#65676A"/>
</svg>

<svg xmlns="http://www.w3.org/2000/svg" width="24" height="24" viewBox="0 0 24 24">
    <path fill="#65676A" fill-rule="evenodd" d="M12.5 12.732c-1.775 0-3.214-1.439-3.214-3.214 0-1.776 1.44-3.215 3.214-3.215 1.775 0 3.214 1.439 3.214 3.215 0 1.775-1.439 3.214-3.214 3.214m6.256-7.4c-3.04-4.443-9.472-4.443-12.513 0-1.76 2.573-1.597 6.013.146 8.599l5.667 8.408c.212.316.676.316.888 0l5.666-8.408c1.743-2.586 1.908-6.026.146-8.599"/>
</svg>
